X:1
T:Alleluia (Lowe), 87.87
T:Alleluia (Lowe), 87.87
T:Albert Lowe, 1868
T:Public Domain Courtesy of the Cyber Hymnal™
C:Albert Lowe, 1868
Z:Public Domain
Z:Courtesy of the Cyber Hymnal™
%%score ( 1 2 ) ( 3 4 ) ( 5 6 )
L:1/8
Q:1/4=105
M:4/4
K:C
V:1 treble 
V:2 treble 
V:3 treble 
V:4 treble 
V:5 bass 
V:6 bass 
V:1
 C2"^Voices in unison" C2 D3 D | D2 F2 F2 E2 | E2 E2 c3 B | A2 B2 E4 | e2 d2 c3 G | %5
 B2 A2 G2 ^F2 x2 | G2 A2 D3 E x | F2 G2 E4 ||"^Voices and Organ" c3 [EB] [FA]2 [FA]2 | %9
 d3 [=Fc] [GB]2 [GB]2 | e3 [=Gd] [Ec]2 [_EA]2 | [DG]4 [EG]4 |] %12
V:2
 x8 | x8 | x8 | x8 | x8 | x10 | x9 | x8 || EFG x5 | ^FGA x5 | ^GAB x5 | x8 |] %12
V:3
"^Organ" C2 C2 D3 D | D2 F2 F2 E2 | [CE]2 [DE]2 [CE-c]3 [DEB] | [CEA]2 [B,FB]2 [B,E]4 | %4
 [EGe]2 [FGd]2 [EGc]3 G | [GB]2 [FA]2 [EG]2 [_E^F]2 x2 | [C-EG]2 [C-_EA]2 D3 z x | %7
 [B,F]2 [B,DG]2 [CE]4 || x8 | x8 | x8 | x8 |] %12
V:4
 x8 | x8 | x8 | x8 | x8 | x10 | x4 C2 (B,2- =E) | x8 || x8 | x8 | x8 | x8 |] %12
V:5
 [C,E,G,]2 [C,E,G,]2 [C,F,A,]3 [C,F,A,] | [C,G,-]2 [G,,G,B,]2 B,2 C2 | %2
 [C,E,G,]2 [B,,E,^G,]2 [A,,E,-A,]3 [B,,E,G,] | [C,E,A,-]2 [D,A,]2 [E,^G,]4 | %4
 [C,G,-C]2 [D,G,B,]2 [E,C]3 [E,,E,C] | [F,,F,C-]4 C4 [_A,,_A,]2 | G,2 ^F,2 =F,3 E, x | %7
 D,2 G,2- [C,G,]4 || C3 [C,C] [F,C]2 [F,C]2 | D3 [D,D] [G,D]2 [G,D]2 | E3 [E,E] A,2 [=F,C]2 | %11
 [G,C]2 [G,,B,]2 [C,C]4 |] %12
V:6
 x8 | x4 [C,G,]4 | x8 | x8 | x8 | x4 [G,,G,]2 x4 | G,,4 G,,4 x | G,,4 x4 || C,D,E, x5 | %9
 D,E,^F, x5 | E,^F,^G, x5 | x8 |] %12

